!!!COM: Palestrina, Giovanni Perluigi da
!!!OPR: Qual e il piu grande'amore
!!!OTL: Credo
**kern	**kern	**kern	**kern	**kern
*Ibass	*Itenor	*Icalto	*Icant	*Icant
!Bassus	!Tenor	!Altus	!Cantus 2	!Cantus 1
*clefF4	*clefGv2	*clefG2	*clefG2	*clefG2
*k[b-]	*k[b-]	*k[b-]	*k[b-]	*k[b-]
*F:ion	*F:ion	*F:ion	*F:ion	*F:ion
*M4/2	*M4/2	*M4/2	*M4/2	*M4/2
=1	=1	=1	=1	=1
0r	0r	1B-	1r	0r
.	.	2B-	1f	.
.	.	2B-	.	.
=2	=2	=2	=2	=2
1r	0r	2d	2f	2r
.	.	2d	2f	2f
1F	.	2f	2a	2f
.	.	[2c	2a	2f
=3	=3	=3	=3	=3
2F	0r	4c]	2.cc	2a
.	.	4B-	.	.
2F	.	4A	.	2a
.	.	4G	4b-	.
2A	.	2F	1a	1cc
2A	.	[2f	.	.
=4	=4	=4	=4	=4
2.c	0r	4f]	1g	1.cc
.	.	8e	.	.
.	.	8d	.	.
.	.	2e	.	.
4B-	.	.	.	.
4A	.	[1f	2a	.
4G	.	.	.	.
4F	.	.	2cc	2a
4E	.	.	.	.
=5	=5	=5	=5	=5
2D	0r	2f]	2dd	2b
2C	.	2e	2g	1cc
1G	.	1d	1g	.
.	.	.	.	2b
=6	=6	=6	=6	=6
2r	2r	1c	1e	0cc
2A	2c	.	.	.
2A	2c	2r	1a	.
2A	2c	2f	.	.
=7	=7	=7	=7	=7
1B-	1d	2f	2f	0r
.	.	2f	2d	.
1G	1B-	1g	1dd	.
=8	=8	=8	=8	=8
2.A	2.c	1e	1cc	2r
.	.	.	.	2a
4G	4B-	.	.	.
4F	2A	2.f	1r	2a
4E	.	.	.	.
2D	[2d	.	.	2a
.	.	4e	.	.
=9	=9	=9	=9	=9
1G	2d]	4d	1r	1b-
.	.	4c	.	.
.	1G	2d	.	.
1C	.	1e	2r	1g
.	2c	.	2cc	.
=10	=10	=10	=10	=10
2.F	2c	[0f	2cc	2.a
.	2F	.	2cc	.
4E	.	.	.	4g
4D	2A	.	1dd	4f
4C	.	.	.	4e
[2BB-	[2B-	.	.	[2d
=11	=11	=11	=11	=11
4BB-]	2B-]	1f]	2b-	4d]
4C	.	.	.	4e
2D	2F	.	2b-	1f
1C	1G	2r	1cc	.
.	.	[2c	.	2e
=12	=12	=12	=12	=12
2F	2F	2c]	1a	2f
2F	2A	2c	.	2cc
2D	2d	1f	1r	2b-
[2F	[2c	.	.	[2a
=13	=13	=13	=13	=13
4F]	4c]	2f	0r	4a]
4F	4c	.	.	4a
2F	2c	2f	.	2a
2C	2c	2e	.	2g
2D	2A	2d	.	2f
=14	=14	=14	=14	=14
1C	2c	1g	2r	2e
.	2c	.	2g	2e
1r	2A	2r	2f	2a
.	[2c	2g	[2e	[2g
=15	=15	=15	=15	=15
0r	2c]	2e	4e]	4g]
.	.	.	4d	8a
.	.	.	.	8b-
.	2c	1g	4e	2cc
.	.	.	4c	.
.	2G	.	2d	2b
.	2A	2c	2f	[2cc
=16	=16	=16	=16	=16
0r	1G	2d	2.g	2cc]
.	.	2d	.	2b
.	.	.	4g	.
.	1r	2c	2g	1cc
.	.	[2f	[2a	.
=17	=17	=17	=17	=17
0r	2.A	2f]	2a]	2.cc
.	.	2e	2a	.
.	4A	.	.	4cc
.	2A	2e	2a	2cc
.	2A	2c	2f	2cc
=18	=18	=18	=18	=18
1r	2G	2d	2g	2b-
.	2G	2e	2g	2b-
2r	2F	2f	2cc	1a
[2D	[2F	[2f	[2a	.
=19	=19	=19	=19	=19
2D]	2F]	2f]	2a]	2f
2D	2F	2d	2b-	2f
1C	1c	1e-	1cc	1g
=20	=20	=20	=20	=20
0BB-	0d	2d	0f	2b-
.	.	2.B-	.	2.dd
.	.	4B-	.	4dd
.	.	2B-	.	2dd
=21	=21	=21	=21	=21
2r	2r	2A	2r	2cc
2.BB-	2.B-	4B-	2.dd	1b-
.	.	4c	.	.
.	.	4d	.	.
4BB-	4B-	4e	4dd	.
2BB-	2B-	2f	2dd	2b-
=22	=22	=22	=22	=22
2F	2A	2r	2cc	2cc
1BB-	1B-	1f	1b-	2.dd
.	.	.	.	4cc
2BB-	[2F	2f	2b-	[2b-
=23	=23	=23	=23	=23
1F	2F]	2.f	2cc	2b-]
.	2A	.	2.dd	2a
.	.	4e	.	.
[1G	2.B-	4d	.	2.g
.	.	4c	4cc	.
.	.	[2d	4b-	.
.	4c	.	4a	4a
=24	=24	=24	=24	=24
2G]	2d	2d]	1.g	2b
2C	2e-	2c	.	1cc
1G	2d	1d	.	.
.	[2G	.	2g	2b
=25	=25	=25	=25	=25
1C	2G]	1c	4e	0cc
.	.	.	4f	.
.	1c	.	4g	.
.	.	.	8f	.
.	.	.	8g	.
1F	.	1r	2.a	.
.	2A	.	.	.
.	.	.	4g	.
=26	=26	=26	=26	=26
2D	2B-	1r	2f	2r
2E	4c	.	4e	2g
.	4B-	.	4d	.
2.F	4A	2r	1c	1cc
.	4G	.	.	.
.	4A	2c	.	.
4E	8B-	.	.	.
.	8c	.	.	.
=27	=27	=27	=27	=27
2F	1d	2f	1r	2a
2G	.	2d	.	2b-
1C	[1c	2e	1g	2.cc
.	.	[2e	.	.
.	.	.	.	8b-
.	.	.	.	8a
=28	=28	=28	=28	=28
0r	1c]	4e]	1cc	2g
.	.	4d	.	.
.	.	4e	.	1a
.	.	4c	.	.
.	2r	1d	2a	.
.	2G	.	2b-	4g
.	.	.	.	4f
=29	=29	=29	=29	=29
0r	2c	2c	2.cc	1e
.	1A	2c	.	.
.	.	.	4b-	.
.	.	2f	2a	2r
.	2B-	2d	2dd	[2g
=30	=30	=30	=30	=30
0r	1c	2e	2cc	2g]
.	.	2e	1a	2cc
.	2d	1f	.	2a
.	2d	.	4g	2b-
.	.	.	4f	.
=31	=31	=31	=31	=31
0r	1c	2.g	4e	1cc
.	.	.	4d	.
.	.	.	2c	.
.	.	4g	.	.
.	4F	2f	[1cc	2.a
.	4G	.	.	.
.	4A	4e	.	.
.	4B-	4d	.	4a
=32	=32	=32	=32	=32
2r	1c	2e	1cc]	2g
2c	.	2e	.	2g
2B-	2r	2d	1r	2g
2A	2c	2c	.	2f
=33	=33	=33	=33	=33
2G	2B-	4d	2r	2g
.	.	4e	.	.
2F	2A	4f	2cc	2c
.	.	8e	.	.
.	.	8d	.	.
2r	2G	2e	2b-	2r
2F	2F	2f	2a	2cc
=34	=34	=34	=34	=34
2G	0r	1r	2g	2b-
2A	.	.	1f	2a
1c	.	2r	.	1g
.	.	[2g	4e	.
.	.	.	4d	.
=35	=35	=35	=35	=35
1C	2r	4g]	1e	1cc
.	.	4f	.	.
.	2c	2e	.	.
1r	2B-	2d	2r	1f
.	2A	2c	2cc	.
=36	=36	=36	=36	=36
0r	2G	2d	2b-	2r
.	2F	4f	2a	2cc
.	.	4e	.	.
.	2G	4d	2g	2b-
.	.	4c	.	.
.	2D	4d	4f	2a
.	.	4c	4e	.
=37	=37	=37	=37	=37
0r	2G	2B	2d	2g
.	2A	1c	2c	2f#
.	1G	.	1d	2.g
.	.	2B	.	.
.	.	.	.	4f
=38	=38	=38	=38	=38
2r	2.A	2c	0r	2e
1F	.	1c	.	1a
.	4G	.	.	.
.	2F	.	.	.
2E	2G	2c	.	2g
=39	=39	=39	=39	=39
1D	1A	1d	1r	1f
1C	2c	2g	2r	1e
.	2G	2c	2g	.
=40	=40	=40	=40	=40
2r	2B-	2d	2f	1r
2C	2c	2e	2e	.
2BB-	1F	1f	2d	2r
2AA	.	.	2c	2cc
=41	=41	=41	=41	=41
2BB-	1F	2f	2r	2b-
2F	.	2F	2cc	2a
2r	2r	2G	2b-	2g
2F	2c	2A	2a	4f
.	.	.	.	4e
=42	=42	=42	=42	=42
2BB-	2B-	2B-	4f	4d
.	.	.	4g	4e
2F	2A	2.c	4a	1f
.	.	.	4b-	.
1C	1G	.	1cc	.
.	.	4B-	.	.
.	.	2G	.	2e
=43	=43	=43	=43	=43
1F	0F	1A	1cc	1f
2r	.	2r	2r	2r
[2F	.	[2f	[2a	[2cc
=44	=44	=44	=44	=44
2F]	0r	2f]	2a]	2cc]
2F	.	2f	2a	2cc
2F	.	2f	2a	2cc
2G	.	2d	2g	2b-
=45	=45	=45	=45	=45
2A	0r	2f	2cc	2a
2c	.	2e	2cc	2g
2.F	.	2.f	2.cc	2.a
4F	.	4f	4cc	4a
=46	=46	=46	=46	=46
2F	0r	2c	2a	2f
2A	.	2c	2cc	2f
2G	.	2d	2b-	2g
2F#	.	2d	2a	2a
=47	=47	=47	=47	=47
1G	1r	1d	1g	1b-
[1D	2r	1d	2f	2a
.	[2d	.	[2a	[2f
=48	=48	=48	=48	=48
1D]	2d]	2r	2a]	2f]
.	2d	1f	2b-	2f
1r	2.c	.	2.cc	2.g
.	.	2e	.	.
.	4c	.	4cc	4a
=49	=49	=49	=49	=49
0r	2B-	1f	2dd	2b-
.	1B-	.	1b-	1dd
.	.	2f	.	.
.	2F	2f	2a	[2cc
=50	=50	=50	=50	=50
1r	1G	2d	1g	4cc]
.	.	.	.	8b
.	.	.	.	8a
.	.	2d	.	2b
2r	2r	[1c	1r	1cc
2F	2A	.	.	.
=51	=51	=51	=51	=51
2F	2A	0c]	0r	0r
2E	2G	.	.	.
2.F	2.A	.	.	.
4G	4B-	.	.	.
=52	=52	=52	=52	=52
2A	2c	0r	2r	0r
2.F	2.d	.	2f	.
.	.	.	2f	.
4E	4c	.	.	.
2C	[2c	.	2e	.
=53	=53	=53	=53	=53
2D	2c]	0r	2.f	2r
2D	2B	.	.	2f
.	.	.	4g	.
1C	1c	.	2a	2f
.	.	.	2g	2e
=54	=54	=54	=54	=54
0r	0r	2r	1a	2.f
.	.	2f	.	.
.	.	.	.	4g
.	.	2f	1cc	2a
.	.	2e	.	2g
=55	=55	=55	=55	=55
0r	2r	2.f	2cc	2a
.	2B-	.	2dd	2.f
.	.	4e	.	.
.	2B-	2d	2b-	.
.	.	.	.	4g
.	2A	2c	2cc	4a
.	.	.	.	4f
=56	=56	=56	=56	=56
0r	2.B-	2.d	1b-	2g
.	.	.	.	2.f
.	4c	4e	.	.
.	2d	2f	2a	.
.	.	.	.	8e
.	.	.	.	8d
.	2c	[2g	2cc	2e
=57	=57	=57	=57	=57
0r	1d	4g]	4b-	1d
.	.	4f	4a	.
.	.	1f	2.a	.
.	1B-	.	.	2r
.	.	.	8g	.
.	.	.	8f	.
.	.	4e	2g	2dd
.	.	4d	.	.
=58	=58	=58	=58	=58
2r	1A	1e	1a	2dd
2A	.	.	.	2cc
2B-	2r	1d	2r	2.dd
4BB-	2B-	.	2dd	.
4C	.	.	.	4cc
=59	=59	=59	=59	=59
4D	1F	1f	2dd	2b-
4E	.	.	.	.
2F	.	.	2cc	2a
2.BB-	2.D	2.f	2.dd	2.b-
4C	4E	4e	4cc	8a
.	.	.	.	8g
=60	=60	=60	=60	=60
4D	4F	2d	2b-	1.f
4E	4G	.	.	.
2F	2A	2c	2a	.
[1BB-	1F	1d	[1b-	.
.	.	.	.	2d
=61	=61	=61	=61	=61
1BB-]	1B-	1f	1b-]	1dd
1F	1c	1f	1a	1cc
=62	=62	=62	=62	=62
1r	1r	1r	1r	1r
!! Et incarnatus
*Ibass	*Itenor	*Icalto	*Icant	*Icant
!Bassus	!Tenor	!Altus	!Cantus 2	!Cantus 1
*clefF4	*clefGv2	*clefG2	*clefG2	*clefG2
*k[b-]	*k[b-]	*k[b-]	*k[b-]	*k[b-]
*F:ion	*F:ion	*F:ion	*F:ion	*F:ion
*M4/2	*M4/2	*M4/2	*M4/2	*M4/2
=63	=63	=63	=63	=63
0F	0r	0f	0a	0cc
=64	=64	=64	=64	=64
1G	0r	1d	1g	1b-
1D	.	1d	1f#	1a
=65	=65	=65	=65	=65
1G	0r	1.d	1g	1b-
1G	.	.	1g	1b-
.	.	2e	.	.
=66	=66	=66	=66	=66
1F	0c	1f	1cc	1a
1r	.	1e	1cc	1g
=67	=67	=67	=67	=67
0r	1d	2f	2a	2f
.	.	2d	2b-	2f
.	1A	1e	2.cc	2a
.	.	.	.	[2cc
.	.	.	4b-	.
=68	=68	=68	=68	=68
0r	1d	0f	2a	2cc]
.	.	.	2g	4b-
.	.	.	.	4a
.	1d	.	1f	1b-
=69	=69	=69	=69	=69
2r	2c	1e	2g	2cc
1C	1c	.	1e	1g
.	.	1r	.	.
2C	2c	.	2e	2g
=70	=70	=70	=70	=70
1F	2c	0r	1f	1a
.	1A	.	.	.
1D	.	.	1f	1dd
.	[2B-	.	.	.
=71	=71	=71	=71	=71
1F	2B-]	0r	1.f	1.cc
.	4A	.	.	.
.	4G	.	.	.
1F	2A	.	.	.
.	2A	.	2f	2cc
=72	=72	=72	=72	=72
1BB-	1B-	1r	1f	1dd
1F	1A	1f	1a	1cc
=73	=73	=73	=73	=73
1BB-	1d	1.f	1b-	2b-
.	.	.	.	4f
.	.	.	.	4g
1AA	1c	.	1cc	4a
.	.	.	.	4b-
.	.	2e	.	2a
=74	=74	=74	=74	=74
1BB-	2.B-	2.d	0dd	2f
.	.	.	.	2.g
.	8A	8c	.	.
.	8G	8B-	.	.
1D	1F	2A	.	.
.	.	.	.	4f
.	.	2B-	.	[2f
=75	=75	=75	=75	=75
0C	0G	0c	0g	2f]
.	.	.	.	4e
.	.	.	.	4d
.	.	.	.	1e
=76	=76	=76	=76	=76
0F	0F	0c	0a	0f
*	*	*	*	*-
!! Crucifixus
*Itenor	*Icalto	*Icant	*Icant
!Tenor	!Altus	!Cantus 2	!Cantus 1
*clefGv2	*clefG2	*clefG2	*clefG2
*k[b-]	*k[b-]	*k[b-]	*k[b-]
*F:ion	*F:ion	*F:ion	*F:ion
*M4/2	*M4/2	*M4/2	*M4/2
=77	=77	=77	=77
0r	0r	0f	1r
.	.	.	[1f
=78	=78	=78	=78
0r	0r	1a	2f]
.	.	.	2f
.	.	1b-	1g
=79	=79	=79	=79
0F	1r	1cc	1a
.	[1c	2.a	2.f
.	.	4a	4f
=80	=80	=80	=80
1A	2c]	2a	2e
.	2c	2cc	2a
1B-	1d	1b-	2f
.	.	.	[2g
=81	=81	=81	=81
1c	1e	1g	4g]
.	.	.	4f
.	.	.	4e
.	.	.	4d
2.A	2.e	2.a	1c
4A	4e	4a	.
=82	=82	=82	=82
2A	2f	2a	2.cc
2c	2e	2g	.
.	.	.	4cc
2.B-	4d	[1b-	2f
.	4e	.	.
.	[2f	.	2f
4A	.	.	.
=83	=83	=83	=83
1G	4f]	1b-]	1g
.	8e	.	.
.	8d	.	.
.	2e	.	.
2F	2f	[1a	1cc
2F	2f	.	.
=84	=84	=84	=84
2.A	2.e	1a]	2r
.	.	.	2cc
4A	4c	.	.
2G	2d	1r	2.b-
2G	2e	.	.
.	.	.	4g
=85	=85	=85	=85
1d	1f	1r	2a
.	.	.	2b-
1A	2e	2r	1cc
.	2A	2a	.
=86	=86	=86	=86
1r	2B-	2.g	2dd
.	2c	.	4cc
.	.	4e	4b-
2r	2d	2f	2a
2B-	4d	2g	2dd
.	4e	.	.
=87	=87	=87	=87
2.A	4f	1a	2.cc
.	4g	.	.
.	2a	.	.
4F	.	.	4a
2G	2g	2d	2b-
2A	[2f	[2a	2cc
=88	=88	=88	=88
1B-	2f]	2a]	1dd
.	4e	2g	.
.	4d	.	.
2A	1e	[1a	2cc
[2A	.	.	[2cc
=89	=89	=89	=89
2A]	2r	1a]	2cc]
2A	1f	.	2cc
1B-	.	1r	1dd
.	2f	.	.
=90	=90	=90	=90
1G	1g	1r	1b-
1A	1e	2r	2.cc
.	.	[2a	.
.	.	.	4b-
=91	=91	=91	=91
2.D	4f	2a]	4a
.	4e	.	4g
.	4d	2a	4f
8E	4c	.	4e
8F	.	.	.
[1G	1B-	1b-	[1d
=92	=92	=92	=92
1G]	1B-	2g	2d]
.	.	1b-	2d
1F	1c	.	[1f
.	.	2a	.
=93	=93	=93	=93
2r	1F	1a	1f]
2F	.	.	.
2D	1f	2r	2r
2F	.	2cc	2a
=94	=94	=94	=94
2B-	2d	2b-	2dd
2F	2f	2a	2cc
1r	2B-	2dd	2b-
.	2F	2cc	2a
=95	=95	=95	=95
0r	2f	2r	2a
.	4f	2cc	4a
.	4f	.	4a
.	2e	4cc	2g
.	.	4cc	.
.	2d	2b-	2f
=96	=96	=96	=96
2A	2r	1a	2cc
4A	1f	.	4cc
4A	.	.	4cc
1G	.	2r	2.b-
.	2e	[2b-	.
.	.	.	4cc
=97	=97	=97	=97
1F	2f	2b-]	2dd
.	2a	2a	2cc
1B-	2g	2b-	1dd
.	[2f	2dd	.
=98	=98	=98	=98
2A	4f]	2cc	0r
.	4e	.	.
2B-	4d	2.b-	.
.	4c	.	.
1d	8B-	.	.
.	8c	.	.
.	8d	4a	.
.	8e	.	.
.	[2f	4a	.
.	.	8g	.
.	.	8f	.
=99	=99	=99	=99
1c	4f]	1g	1r
.	8e	.	.
.	8d	.	.
.	2e	.	.
[1F	[1f	1a	2r
.	.	.	2f
=100	=100	=100	=100
0F]	1f]	2r	2a
.	.	2f	2a
.	1r	2a	2.cc
.	.	2a	.
.	.	.	4b-
=101	=101	=101	=101
0r	2r	2cc	2a
.	2B-	2.dd	2.b-
.	2d	.	.
.	.	4cc	4a
.	2d	2b-	2dd
=102	=102	=102	=102
1r	2f	2a	2cc
.	2g	1dd	2.b-
2r	[1f	.	.
.	.	.	8a
.	.	.	8g
2F	.	[2cc	4a
.	.	.	4b-
=103	=103	=103	=103
2A	2f]	4cc]	4cc
.	.	4b-	4dd
2A	4e	2a	1cc
.	4d	.	.
2c	2e	2g	.
2d	2f	[2f	2b
=104	=104	=104	=104
1c	0g	2f]	0cc
.	.	4e	.
.	.	4d	.
2c	.	[1e	.
2c	.	.	.
=105	=105	=105	=105
4c	0r	1e]	2r
4B-	.	.	.
4A	.	.	2cc
4G	.	.	.
[1F	.	2r	4cc
.	.	.	4b-
.	.	2cc	4a
.	.	.	4g
=106	=106	=106	=106
1F]	2r	4cc	2.f
.	.	4b-	.
.	2f	4a	.
.	.	4g	4g
1r	4f	2f	2a
.	4e	.	.
.	4d	2f	2a
.	4c	.	.
=107	=107	=107	=107
0r	2B-	2g	2b-
.	2F	2a	2a
.	2G	2b-	2g
.	2A	[2a	[2f
=108	=108	=108	=108
2r	2B-	2a]	2f]
2d	2B-	2g	4e
.	.	.	4d
2d	1A	1a	2e
2c#	.	.	2e
=109	=109	=109	=109
1d	1f	2r	1a
.	.	2dd	.
1A	2e	2dd	2a
.	2e	2cc#	2a
=110	=110	=110	=110
2G	1g	1dd	1b-
2G	.	.	.
1F	2c	1a	1cc
.	[2f	.	.
=111	=111	=111	=111
2r	2f]	2g	2cc
2c	2e	2g	2cc
2d	2f	1f	2a
2d	2d	.	4g
.	.	.	4f
=112	=112	=112	=112
1c	2e	2r	2.g
.	2e	2cc	.
.	.	.	4a
2B-	2f	2dd	1b-
2B-	[2f	2dd	.
=113	=113	=113	=113
1A	2f]	1cc	2r
.	2e	.	2cc
1G	1g	2b-	2dd
.	.	2b-	2dd
=114	=114	=114	=114
1A	1e	1a	2cc
.	.	.	1cc
1E	1e	1g	.
.	.	.	2b-
=115	=115	=115	=115
1F	2c	2r	1a
.	2f	1cc	.
1G	4d	.	1g
.	4c	.	.
.	4d	[2b-	.
.	4e	.	.
=116	=116	=116	=116
0F	2.f	2b-]	1cc
.	.	4a	.
.	8e	4g	.
.	8d	.	.
.	[1c	2a	2cc
.	.	2a	2f
=117	=117	=117	=117
1F	2c]	2.f	2.a
.	2c	.	.
.	.	4f	4a
2C	1c	2e	1g
[2c	.	[2e	.
=118	=118	=118	=118
4c]	1r	4e]	1r
4A	.	4f	.
2B-	.	2g	.
1A	2r	1a	2r
.	[2e	.	[2cc
=119	=119	=119	=119
2r	4e]	1r	4cc]
.	4f	.	4a
2G	2g	.	2b-
4A	2f	1cc	2a
4B-	.	.	.
4c	2e	.	2a
4A	.	.	.
=120	=120	=120	=120
2B-	2d	2dd	2f
2A	1f	2cc	2f
1G	.	1b-	1g
.	2e	.	.
=121	=121	=121	=121
2F	2f	2a	1c
2.A	2.e	2.cc	.
.	.	.	1r
4A	4f	4a	.
2G	2g	2b-	.
=122	=122	=122	=122
1F	2c	2a	2r
.	2f	2a	2.cc
2r	2f	2a	.
.	.	.	4a
2G	2d	4g	2b-
.	.	4f	.
=123	=123	=123	=123
4A	4c	2.e	1a
4B-	4d	.	.
4c	4e	.	.
4A	4c	4f	.
2B-	4d	2g	1r
.	4e	.	.
2A	[2f	2a	.
=124	=124	=124	=124
1G	2f]	1b-	2r
.	2e	.	2g
2F	2f	1a	4a
.	.	.	4b-
2F	2c	.	4cc
.	.	.	4a
=125	=125	=125	=125
2B-	4d	1r	2b-
.	4e	.	.
2F	4f	.	2a
.	4d	.	.
1c	1e	2r	1g
.	.	2g	.
=126	=126	=126	=126
2F	1c	4a	0f
.	.	4b-	.
2F	.	4cc	.
.	.	4a	.
2D	2d	2b-	.
2F	[2c	2a	.
=127	=127	=127	=127
0F	4c]	0a	0cc
.	4B-	.	.
.	4A	.	.
.	4G	.	.
.	2F	.	.
.	[2f	.	.
=128	=128	=128	=128
[0C	2f]	[0g	[0cc
.	4e	.	.
.	4d	.	.
.	1e	.	.
=129	=129	=129	=129
0C]	0e	0g]	0cc]
==	==	==	==
*-	*-	*-	*-
!!!CDT: 1525/^1526/-1594/2/2
!!!OCY: Italia
!!!AGN: Mass (Parody)
!!!AST: renaissance, vocal
!!!ASW: Madrigal 1550 (Rore)
!!!PWK: Masses, Book 12
!!!RNB: Cadence finals: C
!!!YOR: Le Opere Complete, v. 29, p. 88
!!!YOO: Rome, Italy: Fratelli Scalera
!!!END: 1992//
!!!EED: John Miller
!!!YEC: Copyright 2000, John Miller
!!!YEN: United States of America
!!!YEM: Rights to all derivative electronic formats reserved.
!!!YEM: Refer to licensing agreement for further details.
!!!YEM: This file must be accompanied by the licensing agreement.
!!!YEM: A copy of the licensing agreement may be found at http://www.music-cog.ohio-state.edu/HumdrumDatabases/Palestrina/license.txt
!!!EMD: converted to Humdrum by Bret Aarden
